X:186
T:Joanie's Jig
R:Jig
C:Nancy  Martin
M:6/8
L:1/8
K:D % 2 sharps
"D"DEF "A"EFG|"D"FAd f2f|"A"gec ABc|"D"dAG FED|\
"D"DEF "A"EFG|"D"FAd f2f|"A"gec ABc|"D"d3 d2z:||\
||:"D"F3 "G"|"D"afd def|"A"gec ABc|"D"dAG FED|\
"D"f3 "G"g3|"D"afd def|"A"gec ABc|"D"d3 d2z:||

%  <A name="D1X187"></A>
